frontend/public/svg/interface/mail-surprise.svg

<svg width="160" height="156" viewBox="0 0 160 156" fill="none" xmlns="http://www.w3.org/2000/svg">
<g clip-path="url(#clip0)">
<path d="M1.17346 108.145C1.17346 99.2499 1.00345 90.3508 1.23319 81.462C1.38505 75.5957 2.3306 69.751 2.49479 63.8849C2.58759 60.5621 3.85765 58.2718 6.24979 56.1827C12.8518 50.4133 19.3332 44.5056 25.9093 38.7057C26.9902 37.7812 27.6759 36.4772 27.8251 35.0615C29.3035 25.6605 33.2421 17.6735 41.7133 12.6269C46.6007 9.71688 51.8536 8.12685 57.6204 9.4093C59.4921 9.8253 61.0094 9.2977 62.6175 8.29085C65.9034 6.23231 69.2645 4.26395 72.7294 2.5291C78.6675 -0.444654 84.6751 -0.566209 90.5977 2.71889C92.3441 3.68804 94.1489 4.56397 95.8356 5.62803C96.8097 6.26398 97.915 6.66916 99.0688 6.81314C100.222 6.95705 101.393 6.8355 102.494 6.4583C107.105 5.08769 112.026 5.1762 116.585 6.71096C123.55 9.00416 127.991 13.9255 130.418 20.5952C131.578 23.7802 131.994 27.2658 132.437 30.6556C132.532 32.0857 133.179 33.4221 134.244 34.3804C140.935 40.3792 147.441 46.5956 154.316 52.3735C158.275 55.6995 159.255 59.8934 159.2 64.5286C159.09 73.8544 158.695 83.1761 158.486 92.501C158.222 104.382 158.169 116.27 157.729 128.144C157.547 132.802 156.931 137.433 155.888 141.976C154.162 149.525 150.783 152.851 141.914 153.891C136.841 154.376 131.745 154.59 126.649 154.53C115.102 154.639 103.552 154.478 92.0079 154.692C84.8166 154.822 77.6343 155.459 70.4463 155.831C68.5642 155.929 66.6724 155.901 64.7858 155.901C52.7947 155.901 40.8015 156.018 28.8136 155.832C24.0537 155.687 19.3072 155.249 14.6009 154.521C8.85679 153.717 4.65069 150.65 3.00553 144.908C1.96564 141.638 1.33356 138.253 1.12355 134.828C0.863958 125.941 1.03522 117.041 1.03522 108.147L1.17346 108.145ZM109.211 100.55C107.949 101.377 106.94 102.04 105.93 102.698C97.6463 108.085 89.3634 113.473 81.0804 118.86C78.9128 120.272 76.7472 121.103 74.2889 119.454C67.7452 115.062 61.1568 110.735 54.6248 106.323C52.45 104.855 50.3941 103.211 48.3816 101.721C43.2092 105.994 14.5263 141.571 13.3938 145.22C14.9682 145.625 16.5134 146.273 18.0982 146.39C25.3888 146.922 32.6898 147.629 39.9902 147.666C51.6349 147.724 63.2822 147.299 74.9288 147.078C75.1507 147.074 75.3727 147.06 75.594 147.05C85.0042 146.654 94.4144 146.069 103.825 145.906C115.704 145.699 127.59 145.852 139.472 145.8C140.955 145.793 142.437 145.484 144.448 145.255L109.211 100.55ZM83.6102 71.0873C91.3888 65.1074 98.8196 59.4747 106.16 53.7261C111.08 49.8736 115.511 45.5054 118.924 40.2164C123.315 33.4083 123.319 25.4974 119.012 19.5694C118.206 18.3592 117.144 17.3414 115.9 16.5898C114.657 15.8381 113.263 15.3708 111.818 15.2206C109.412 15.0061 106.821 14.8378 104.549 15.4904C92.422 18.9802 84.3558 26.6481 81.2446 39.1399C80.8909 40.6501 80.4353 42.1345 79.8818 43.5832C79.3626 44.8767 78.1594 45.2227 76.8517 45.1987C76.2326 45.222 75.6251 45.0281 75.1338 44.6509C74.6419 44.2737 74.2973 43.737 74.1584 43.1325C73.9319 42.3919 73.784 41.6294 73.7184 40.8575C73.0876 32.9438 69.2761 26.7141 63.2458 21.8774C58.2837 17.8988 51.3759 17.9482 46.1484 21.5765C36.5863 28.2117 35.3066 42.5906 42.6751 51.4683C48.0169 57.9033 55.0057 62.0507 62.6772 64.8555C69.4209 67.3245 76.4552 68.993 83.6102 71.0873ZM130.097 42.7752C126.881 46.928 124.236 50.7778 121.153 54.2371C114.389 61.8278 106.301 67.9323 98.1019 73.8505C94.4806 76.4056 90.7288 78.7684 86.8609 80.9303C85.6051 81.6284 84.1527 81.8897 82.7327 81.6726C70.4845 79.2182 58.5673 75.7323 47.8306 69.0945C41.2448 65.0229 35.4214 60.0858 31.621 53.1516C30.7293 51.5266 30.0538 49.7782 29.0543 47.5975L13.1543 61.1472C13.876 62.2555 14.682 63.3065 15.5652 64.2905C18.2299 66.7987 20.8739 69.3538 23.7424 71.6197C33.4076 79.2644 43.023 86.9857 52.9342 94.3008C60.6032 99.961 68.6875 105.057 76.3111 110.217C84.5693 106.895 143.138 64.0556 146.794 58.829L130.097 42.7752ZM147.733 133.935L148.438 133.745C149.022 112.349 149.606 90.9539 150.206 68.9034L115.852 95.413C126.968 108.299 136.364 121.933 147.733 133.935ZM40.5814 95.7795L10.0586 70.4413C10.0113 71.4897 9.90742 72.5472 9.92365 73.6022C10.108 85.6987 10.3487 97.7945 10.4947 109.892C10.5817 117.112 10.5188 124.333 10.5513 131.554C10.6025 132.355 10.7033 133.151 10.853 133.94L40.5814 95.7795ZM69.2197 14.3713C71.0083 16.3109 72.5094 17.7819 73.8209 19.4069C75.1656 21.0709 76.3247 22.8853 77.4027 24.4063C81.3537 20.1813 85.0794 16.1977 88.7598 12.2607C84.8503 8.75066 80.5703 8.58322 76.0885 10.7068C73.9053 11.7396 71.8156 12.9758 69.2197 14.3687V14.3713Z" fill="black"/>
</g>
<defs>
<clipPath id="clip0">
<rect width="159" height="156" fill="white" transform="translate(0.777344)"/>
</clipPath>
</defs>
</svg>

<svg xmlns="http://www.w3.org/2000/svg" width="160" height="156" fill="none" viewBox="0 0 160 156"><g clip-path="url(#a)"><path fill="#000" d="M1.173 108.145c0-8.895-.17-17.794.06-26.683.152-5.866 1.098-11.711 1.262-17.577.093-3.323 1.363-5.613 3.755-7.702 6.602-5.77 13.083-11.677 19.66-17.477a5.56 5.56 0 0 0 1.915-3.645c1.479-9.4 5.417-17.387 13.888-22.434 4.888-2.91 10.14-4.5 15.907-3.218 1.872.416 3.39-.111 4.998-1.118 3.285-2.059 6.646-4.027 10.111-5.762 5.939-2.974 11.946-3.095 17.869.19 1.746.969 3.55 1.845 5.238 2.909a7.65 7.65 0 0 0 6.658.83 23.33 23.33 0 0 1 14.091.253c6.965 2.293 11.406 7.214 13.833 13.884 1.16 3.185 1.576 6.67 2.019 10.06a5.5 5.5 0 0 0 1.807 3.725c6.691 6 13.197 12.216 20.072 17.993 3.959 3.327 4.939 7.52 4.884 12.156-.11 9.325-.505 18.647-.714 27.972-.264 11.881-.317 23.769-.757 35.643a75 75 0 0 1-1.841 13.832c-1.726 7.549-5.105 10.875-13.974 11.915-5.073.485-10.169.699-15.265.639-11.547.109-23.097-.052-34.641.162-7.191.13-14.374.767-21.562 1.139-1.882.098-3.774.07-5.66.07-11.991 0-23.985.117-35.972-.069-4.76-.145-9.507-.583-14.213-1.311-5.744-.804-9.95-3.871-11.595-9.613a41.7 41.7 0 0 1-1.882-10.08c-.26-8.887-.089-17.787-.089-26.681zm108.038-7.595c-1.262.827-2.271 1.49-3.281 2.148L81.08 118.86c-2.167 1.412-4.333 2.243-6.791.594-6.544-4.392-13.132-8.719-19.664-13.131-2.175-1.468-4.23-3.112-6.243-4.602-5.173 4.273-33.856 39.85-34.988 43.499 1.574.405 3.12 1.053 4.704 1.17 7.29.532 14.592 1.239 21.892 1.276 11.645.058 23.292-.367 34.939-.588.222-.004.444-.018.665-.028 9.41-.396 18.82-.981 28.231-1.144 11.879-.207 23.765-.054 35.647-.106 1.483-.007 2.965-.316 4.976-.545zm-25.6-29.463c7.778-5.98 15.209-11.612 22.549-17.36 4.92-3.853 9.351-8.222 12.764-13.51 4.391-6.809 4.395-14.72.088-20.648a9.88 9.88 0 0 0-7.194-4.348c-2.406-.215-4.997-.383-7.269.27-12.127 3.49-20.193 11.157-23.304 23.649a34.5 34.5 0 0 1-1.363 4.443c-.52 1.294-1.723 1.64-3.03 1.616a2.665 2.665 0 0 1-2.693-2.066 11 11 0 0 1-.44-2.276c-.631-7.913-4.443-14.143-10.473-18.98-4.962-3.978-11.87-3.929-17.098-.3-9.562 6.635-10.841 21.014-3.473 29.891 5.342 6.435 12.33 10.583 20.002 13.388 6.744 2.469 13.778 4.137 20.933 6.231m46.486-28.312c-3.216 4.153-5.861 8.003-8.944 11.462-6.764 7.59-14.852 13.695-23.051 19.613a127 127 0 0 1-11.241 7.08 6.48 6.48 0 0 1-4.128.743c-12.249-2.455-24.166-5.94-34.902-12.579-6.586-4.071-12.41-9.008-16.21-15.942-.892-1.625-1.567-3.374-2.567-5.555l-15.9 13.55a26 26 0 0 0 2.411 3.143c2.665 2.509 5.309 5.064 8.177 7.33 9.666 7.644 19.281 15.366 29.192 22.68 7.67 5.661 15.754 10.757 23.377 15.917 8.258-3.322 66.827-46.161 70.483-51.388zm17.636 91.16.705-.19c.584-21.396 1.168-42.791 1.768-64.842l-34.354 26.51c11.116 12.886 20.512 26.52 31.881 38.522M40.581 95.78 10.06 70.44c-.048 1.049-.152 2.106-.135 3.161.184 12.097.425 24.192.57 36.29.088 7.22.025 14.441.057 21.662q.077 1.202.302 2.386zM69.22 14.37c1.788 1.94 3.29 3.41 4.6 5.036 1.346 1.664 2.505 3.478 3.583 5 3.95-4.226 7.676-8.21 11.357-12.146-3.91-3.51-8.19-3.678-12.672-1.554-2.183 1.033-4.272 2.269-6.868 3.662z"/></g><defs><clipPath id="a"><path fill="#fff" d="M.777 0h159v156h-159z"/></clipPath></defs></svg>
